X: 2521
T: Ballydesmond, The
R: polka
M: 2/4
K: Dmajor
D>D FA|dc BA|BE EF|GA/G/ FE|
D>D FA|dc BA|Be Bc|d2 d2:|
|:eB eB|eB B>c|dA dA|dA A2|
eB eB|eB B>c|dB AF|1 E2 E2:|2 E2 EF/E/||

